X:1
T:Title
%%score { ( 1 3 ) | 2 }
L:1/8
Q:1/4=100
M:6/8
K:A
V:1 treble nm="Grand Piano"
V:3 treble 
V:2 bass 
V:1
 [CE]2 [CE] [DF]2 [CE] | [Ec]3 [CA]3 | G2 G A2 B | [CA]6 | [FA]2 [^EG] [FA]2 [DF] | [CE]3 [Ec]3 | %6
w: James~M.~Black * * *||||||
 [^Dc]2 [DB] [Dc]2 [DB] | [DB]6 | [CE]2 [CE] [DF]2 [CE] | [Ec]3 [CA]3 | [DF]2 [DG] [FA]2 [FB] | %11
w: |||||
 [Ec]6 | c2 d e2 c | B3 F3 | G2 G c2 B | [CA]6 |[M:4/4] c6 z2 | G6 z2 | d6 z2 | E6 z2 | %20
w: |||||||||
 c->[Ac-] [Gc-]>[Fc-] [Ec]>[Ec] [EB]>[EA] | z z/ D/ D2 [Fd]2 z2 | c>E ^D>E c2 B2 | [CA]6 z2 |] %24
w: ||||
V:2
 [A,,A,]2 [A,,A,] [A,,A,]2 [A,,A,] | [A,,A,]3 [A,,A,]3 | [E,B,D]2 [E,B,D] [E,G,D]2 [E,G,D] | %3
 [A,,A,]6 | [D,A,]2 [D,A,] [D,D]2 [D,A,] | [A,,A,]3 [A,,A,]3 | [B,,F,]2 [B,,F,] [B,,A,]2 [B,,A,] | %7
 [E,G,]6 | [A,,A,]2 [A,,A,] [A,,A,]2 [A,,A,] | [A,,A,]3 [A,,A,]3 | [D,A,]2 [D,A,] [D,A,]2 [D,A,] | %11
 [A,,A,]6 | [A,E]2 [A,B,E] [A,CE]2 [A,E] | [D,F,D]3 [D,B,D]3 | [E,B,D]2 [E,B,D] [E,A,E]2 [E,G,D] | %15
 [A,,A,]6 |[M:4/4] [A,,A,]>[A,,A,] [C,A,]>[E,A,] A,>[A,C] [A,,A,]>[A,,A,] | %17
 [E,B,D]>[E,B,] [E,B,]>[E,B,] [E,B,]2 z2 | %18
 [E,G,E]>[E,G,] [E,B,]>[E,A,] [E,G,]>[E,G,E] [E,B,E]>[E,G,D] | [A,C]>A, [E,A,]>[C,A,] [A,,A,]2 z2 | %20
 [A,,A,]>[A,,A,] [A,,A,]>[A,,A,] [A,,A,]>[A,,A,] [B,,G,]>[C,A,] | %21
 [D,A,D]>[D,A,] [D,A,]2 [D,A,]2 z2 | [E,A,E]>[E,A,C] [E,A,=C]>[E,A,^C] [E,G,E]2 [E,G,D]2 | %23
 [A,,A,]6 z2 |] %24
V:3
 x6 | x6 | x6 | x6 | x6 | x6 | x6 | x6 | x6 | x6 | x6 | x6 | x6 | x6 | x6 | x6 | %16
[M:4/4] E>E A>F E>E [CE]>[CA] | z z/ D/ D>D D2 z2 | z z/ E/ G>F E>F G>F | z z/ C/ C>C C2 z2 | %20
 E2 z2 z4 | F4 z4 | x8 | x8 |] %24

